!!!COM: Clementi, Muzio
!!!CDT: 1752/01/23/-1832/03/10/
!!!ODT: ~1800///
!!!OTL: Sonata No. 3 in C Major, Op. 36, Mvmt. 1
!!!OPS: Op. 36
!!!ONM: No. 3
!!!OMV: 1. Spiritoso
**kern	**kern	**dynam
*staff2	*staff1	*staff1/2
*Ipiano	*Ipiano	*Ipiano
*>[A,A,B,B]	*>[A,A,B,B]	*>[A,A,B,B]
*>A	*>A	*>A
*clefG2	*clefG2	*clefG2
*k[]	*k[]	*k[]
*C:	*C:	*C:
*met(C)	*met(C)	*met(C)
*M4/4	*M4/4	*M4/4
*MM120	*MM120	*MM120
=1-	=1-	=1-
8e/L	4.gg\	.
8c/	.	.
8e/	.	.
8c/J	8ee\	.
8e/L	8cc/L	.
8c/	8g/	.
8e/	8g/	.
8c/J	8g/J	.
=2	=2	=2
8e/L	4.gg\	.
8c/	.	.
8e/	.	.
8c/J	8ee\	.
8e/L	16cc\LL	.
.	16dd\	.
8c/	16ee\	.
.	16ff\JJ	.
8e/	16gg\LL	.
.	16aa\	.
8c/J	16bb\	.
.	16ccc\JJ	.
=3	=3	=3
8f/L	8bb\L	.
8c/	8aa\	.
8f/	8aa\	.
8c/J	8aa\J	.
8f/L	16bb\LL	.
.	16aa\	.
8c/	16gg#\	.
.	16aa\JJ	.
8f/	8ccc\L	.
8c/J	8aa\J	.
=4	=4	=4
8e/L	8ff#\L	.
8c/	8gg\	.
8e/	8gg\	.
8c/J	8gg\J	.
8e/L	4gg\	.
8c/	.	.
8e/	4r	.
8c/J	.	.
=5	=5	=5
4g/	8dd\ 8ff\L	p
.	8dd\ 8ff\	.
4r	8cc\ 8ee\	.
.	8cc\ 8ee\J	.
8g/L	4b\ 4dd\	.
8g/	.	.
8f/	4r	.
8f/J	.	.
=6	=6	=6
4e/	8ee\ 8gg\L	.
.	8ee\ 8gg\	.
4r	8dd\ 8ff\	.
.	8dd\ 8ff\J	.
8a/L	4cc\ 4ee\	.
8a/	.	.
8g/	4r	.
8g/J	.	.
=7	=7	=7
8f'/	16aa\LL	.
.	16ff\	.
8r	16ee\	.
.	16dd\JJ	.
8r	16aa\LL	.
.	16ff\	.
8f'/	16ee\	.
.	16dd\JJ	.
8g'/	16ee\LL	.
.	16gg\	.
8r	16ee\	.
.	16cc\JJ	.
*clefF4	*	*
8G'\	16dd\LL	.
.	16ff\	.
8r	16dd\	.
.	16b\JJ	.
=8	=8	=8
8c'\	8cc\L	.
8r	8cc\	.
8G'\	8b\ 8dd\	.
8r	8b\ 8dd\J	.
8c\L	8cc\ 8ee\	.
8G\	8r	.
8E\	4r	.
8C\J	.	.
=9	=9	=9
4G\	8d/ 8f/L	.
.	8d/ 8f/	.
4r	8c/ 8e/	.
.	8c/ 8e/J	.
8G\L	4B/ 4d/	.
8G\	.	.
8F\	4r	.
8F\J	.	.
=10	=10	=10
8E'\	8e/ 8g/L	.
8r	8e/ 8g/	.
8G#'\	8f/ 8b/	.
8r	8f/ 8b/J	.
8A'\	8e/ 8cc/L	.
8r	8e/ 8cc/	.
8E'\	8g/ 8cc#/	.
8r	8g/ 8cc#/J	.
=11	=11	=11
8F\L	8a\ 8dd\L	f
8F\	8a\ 8dd\	.
8D\	8dd\ 8ff\	.
8D\J	8dd\ 8ff\J	.
8Gn/L	8ccn\ 8ee\L	.
8G/	8cc\ 8ee\	.
8GG/	8b\ 8dd\	.
8GG/J	8b\ 8dd\J	.
=12	=12	=12
4C/	4cc\	.
4CC/ 4C/	4ee\ 4gg\ 4ccc\	.
4CC/ 4C/	4ee\ 4gg\ 4ccc\	.
4r	4r	.
=13	=13	=13
8G\L	4gg\	.
8B\	.	.
8d\J	16aa\LL	.
.	16gg\	.
8r	16ff#\	.
.	16ee\JJ	.
8G\L	4dd\	.
8B\	.	.
8d\J	16ee\LL	.
.	16dd\	.
8r	16cc\	.
.	16b\JJ	.
=14	=14	=14
8G\L	8a/L	.
.	bq/	.
8c\	16a/L	.
.	16g#/JJ	.
8e\J	8a/L	.
8r	8b/J	.
8G\L	8cc\	.
8c\	8r	.
8e\J	8r	.
8r	16ccc\LL	.
.	16bb\JJ	.
=15	=15	=15
8F#\L	16aa\LL	.
.	16bb\	.
8A\	16aa\	.
.	16bb\JJ	.
8d\J	16ccc\LL	.
.	16bb\	.
8r	16aa\	.
.	16bb\JJ	.
8F#\L	16ccc\LL	.
.	16bb\	.
8A\	16aa\	.
.	16gg\JJ	.
8d\J	16ff#\LL	.
.	16ee\	.
8r	16dd\	.
.	16cc\JJ	.
=16	=16	=16
8G\L	8b\	.
8B\	8r	.
8d\J	16r	.
.	16g/LL	.
8r	16a/	.
.	16b/JJ	.
2r	16cc\LL	.
.	16dd\	.
.	16ee\	.
.	16ff#\JJ	.
.	16gg\LL	.
.	16aa\	.
.	16bb\	.
.	16aa\JJ	.
=17	=17	=17
8E\L	8gg\	.
8G\	8r	.
8B\J	16r	.
.	16g/LL	.
8r	16a/	.
.	16b/JJ	.
2r	16cc\LL	.
.	16dd\	.
.	16ee\	.
.	16ff#\JJ	.
.	16gg\LL	.
.	16aa\	.
.	16bb\	.
.	16ccc\JJ	.
=18	=18	=18
8BB\L	8ddd\L	f
8G\	8ddd\J	.
8BB\	(16ccc\LL	.
.	16bb\	.
8G\J	16aa\	.
.	16bb\JJ)	.
8BB\L	8gg'\L	.
8G\	8gg'\	.
8BB\	8dd#'\	.
8G\J	8dd#'\J	.
=19	=19	=19
8C\L	8ee'\L	.
8G\	8ee'\J	.
8C\	(16ddn\LL	.
.	16cc\	.
8G\J	16b\	.
.	16cc\JJ)	.
8C\L	8a'/L	.
8G\	8a'/	.
8C\	8e'/	.
8G\J	8e'/J	.
=20	=20	=20
8D\L	8d'/L	.
8G\	8d'/J	.
8D\	16dd/LL	.
.	(16b/	.
8G\J	16a/	.
.	16g/JJ)	.
8D\L	2a/	.
8F#\	.	.
8D\	.	.
8F#\J	.	.
=21	=21	=21
8BB\L	8r	.
8G\	8ddd\	p
8BB\	8r	.
8G\J	8bb\	.
8BB\L	8r	.
8G\	8gg\	.
8BB\	8r	.
8G\J	8dd#\	.
=22	=22	=22
8C\L	8r	.
8G\	16ee\LL	.
.	16dd#\JJ	.
8C\	16ee\LL	.
.	16ff#\	.
8G\J	16gg\	.
.	16ff#\JJ	.
8C\L	16ee\LL	.
.	16ddn\	.
8G\	16cc\	.
.	16b\JJ	.
8C\	16a/LL	.
.	16g/	.
8G\J	16f#/	.
.	16e/JJ	.
=23	=23	=23
8D\L	16d/LL	f
.	16g/	.
8G\	16b/	.
.	16dd/JJ	.
8D\	16cc/LL	.
.	16b/	.
8G\J	16a/	.
.	16g/JJ	.
8D\L	2a/	.
8F#\	.	.
8D\	.	.
8F#\J	.	.
=24	=24	=24
8GG/L	8g'/	p
8G/J	8r	.
4r	8d'/L	.
.	8d'/J	.
8GG/L	8B'/ 8g'/	.
8G/J	8r	.
4r	8d'/L	.
.	8d'/J	.
=25	=25	=25
8GG/L	8c'/ 8a'/	.
8G/J	8r	.
4r	8d'/L	.
.	8d'/J	.
8GG/L	8A'/ 8f#'/	.
8G/J	8r	.
4r	8d'/L	.
.	8d'/J	.
=26	=26	=26
8GG/L	4B/ 4g/	f
8G/	.	.
8D/	4B/ 4g/	.
8BB/J	.	.
4GG/	4B/ 4g/	.
4r	4r	.
=27:|!|:	=27:|!|:	=27:|!|:
*>B	*>B	*>B
8B\L	4.g/	.
8G\	.	.
8B\	.	.
8G\J	8b\	.
8B\L	8dd\L	.
8G\	8gg\	.
8B\	8gg\	.
8G\J	8gg\J	.
=28	=28	=28
8c\L	16a\LL	.
.	16b\	.
8G\	16cc\	.
.	16b\JJ	.
8c\	16a\LL	.
.	16b\	.
8G\J	16cc\	.
.	16b\JJ	.
8c\L	8a/	.
8G\	8r	.
8c\	4r	.
8G\J	.	.
=29	=29	=29
8d\L	4.b\	.
8G\	.	.
8d\	.	.
8G\J	8dd\	.
8d\L	8ffn\L	.
8G\	8bb\	.
8d\	8bb\	.
8G\J	8bb\J	.
=30	=30	=30
8e\L	8cc\L	f
8G\	16dd\L	.
.	16ee\JJ	.
8e\	16ff\LL	.
.	16gg\	.
8G\J	16aa\	.
.	16bb\JJ	.
8e\L	8ccc\	.
8G\	8r	.
8e\	4r	.
8G\J	.	.
=31	=31	=31
8f\L	8ddd\L	ff
8G\	8ddd\	.
8f\	8bb\	.
8G\J	8bb\J	.
8f\L	8gg\L	.
8G\	8gg\J	.
8f\	16gg\LL	.
.	16aa\	.
8G\J	16bb\	.
.	16gg\JJ	.
=32	=32	=32
8e-\L	8ccc\L	.
8G\	8ccc\	.
8e-\	8gg\	.
8G\J	8gg\J	.
8e-\L	8ee-\L	.
8G\	8ee-\J	.
8e-\	16cc\LL	.
.	16dd\	.
8G\J	16ee-\	.
.	16cc\JJ	.
=33	=33	=33
8d\L	8bn/L	.
8G\	8b/	.
8c\	8a-/	.
8G\J	8a-/J	.
8Bn\L	8g/L	.
8G\	8g/	.
8c\	8f#/	.
8G\J	8f#/J	.
=34	=34	=34
*^	*	*
4B/	1G	8g/L	p
.	.	8g/	.
4c/	.	8f#/	.
.	.	8f#/J	.
4B/	.	8g/L	.
.	.	8g/	.
4c/	.	8f#/	.
.	.	8f#/J	.
*v	*v	*	*
=35	=35	=35
4G\ 4B\	8g/L	pp
.	8g/	.
4r	8f#/	.
.	8f#/J	.
2r	8g/L	.
.	8g/	.
.	8f#/	.
.	8f#/J	.
=36	=36	=36
8E\L	4.g/	f
8C\	.	.
8E\	.	.
8C\J	8e/	.
8E\L	8c/L	.
8C\	8G/	.
8E\	8G/	.
8C\J	8G/J	.
=37	=37	=37
8E\L	4.g/	.
8C\	.	.
8E\	.	.
8C\J	8e/	.
8E\L	16c/LL	.
.	16d/	.
8C\	16e/	.
.	16f/JJ	.
8E\	16g/LL	.
.	16a/	.
8C\J	16b/	.
.	16cc/JJ	.
=38	=38	=38
8F\L	8b/L	.
8C\	8a/	.
8F\	8a/	.
8C\J	8a/J	.
8F\L	16b/LL	.
.	16a/	.
8C\	16g#/	.
.	16a/JJ	.
8F\	8cc\L	.
8C\J	8a\J	.
=39	=39	=39
8E\L	8f#/L	.
8C\	8g/	.
8E\	8g/	.
8C\J	8g/J	.
8E\L	4g/	.
8C\	.	.
8E\	4r	.
8C\J	.	.
=40	=40	=40
4G\	8d/ 8fn/L	p
.	8d/ 8f/	.
4r	8c/ 8e/	.
.	8c/ 8e/J	.
8G\L	4B/ 4d/	.
8G\	.	.
8F\	4r	.
8F\J	.	.
=41	=41	=41
4E\	8e/ 8g/L	.
.	8e/ 8g/	.
4r	8d/ 8f/	.
.	8d/ 8f/J	.
8A\L	4c/ 4e/	.
8A\	.	.
8G\	4r	.
8G\J	.	.
=42	=42	=42
8F\L	8f/ 8a/L	.
8F\	8f/ 8a/	.
8E\	8g/ 8cc#/	.
8E\J	8g/ 8cc#/J	.
4D\	8f/ 8dd/L	.
.	8f/ 8dd/	.
4r	8f#/ 8ccn/	.
.	8f#/ 8cc/J	.
=43	=43	=43
8G\L	8g/ 8b/L	.
8G\	8g/ 8b/	.
8F#\	8a/ 8dd#/	.
8F#\J	8a/ 8dd#/J	.
8E\L	8g#\ 8ee\L	.
8E\	8g#\ 8ee\	.
8Dn\	8g#\ 8b\ 8ee\	.
8D\J	8g#\ 8b\ 8ee\J	.
=44	=44	=44
8C/L	8a\ 8cc\ 8ee\L	f
8C/	8a\ 8cc\ 8ee\	.
8BB/	8b\ 8dd\ 8ee\	.
8BB/J	8b\ 8dd\ 8ee\J	.
8AA/L	8cc\ 8ee\L	.
8AA/	8cc\ 8ee\	.
8GGn/	8cc#\ 8ee\	ff
8GG/J	8cc#\ 8ee\J	.
=45	=45	=45
8FFn/L	8dd\ 8ff\L	.
8FF/	8dd\ 8ff\	.
8EE/	8ee\ 8gg\	.
8EE/J	8ee\ 8gg\J	.
8DD/L	8ff\ 8aa\L	.
8EE/	8ee\ 8gg\	.
8FF/	8dd\ 8ff\	.
8FF#/J	8cc\ 8ee\J	.
=46	=46	=46
8GG/L	8b''\ 8dd''\	.
8GG/	8r	.
8GG/	8b\ 8ff\L	.
8GG/J	8b\ 8ff\J	.
8GG/L	8cc''\ 8ee''\	.
8GG/	8r	.
8GG/	8f#/ 8cc/L	.
8GG/J	8f#/ 8cc/J	.
=47	=47	=47
8GG/L	8g/ 8b/	.
8GG/	8r	.
8GG/	8B/ 8fn/L	.
8GG/J	8B/ 8f/J	.
8GG/L	8c''/ 8e''/	.
8GG/	8r	.
*	*clefF4	*clefF4
8GG/	8F#\ 8c\L	.
8GG/J	8F#\ 8c\J	.
=48	=48	=48
8GG/	8G''\ 8B''\	.
8r	8r	.
*	*clefG2	*clefG2
8GG/ 8G/	8B/ 8d/ 8g/	.
8r	8r	.
8GG/ 8G/	8B/ 8d/ 8g/	.
8r	8r	.
4r	4r	.
*clefG2	*	*
=49	=49	=49
8c/L	(4ccc\	.
8e/J	.	.
8g/	16ddd\LL	.
.	16ccc\	.
8r	16bb\	.
.	16aa\JJ)	.
8c/L	4gg\	.
8e/J	.	.
8g/	16aa\LL	.
.	16gg\	.
8r	16ff\	.
.	16ee\JJ	.
=50	=50	=50
8c/L	8dd\L	.
.	eeq/	.
8f/J	16dd\L	.
.	16cc#\JJ	.
8a/	8dd\L	.
8r	8ee\J	.
8c/L	8ff\	.
8f/J	8r	.
8a/	8r	.
8r	16fff\LL	.
.	16eee\JJ	.
=51	=51	=51
8B/L	16ddd\LL	.
.	16eee\	.
8d/J	16ddd\	.
.	16eee\JJ	.
8g/	16fff\LL	.
.	16eee\	.
8r	16ddd\	.
.	16eee\JJ	.
8B/L	16fff\LL	.
.	16eee\	.
8d/J	16ddd\	.
.	16ccc\JJ	.
8g/	16bb\LL	.
.	16aa\	.
8r	16gg\	.
.	16ff\JJ	.
=52	=52	=52
8c/L	8ee\	.
8e/J	8r	.
8g/	16r	.
.	16cc\LL	.
8r	16dd\	.
.	16ee\JJ	.
2r	16ff\LL	.
.	16gg\	.
.	16aa\	.
.	16bb\JJ	.
.	16ccc\LL	.
.	16ddd\	.
.	16eee\	.
.	16ddd\JJ	.
=53	=53	=53
8A/L	8ccc\	.
8c/J	8r	.
8e/	16r	.
.	16cc\LL	.
8r	16dd\	.
.	16ee\JJ	.
2r	16ff\LL	.
.	16gg\	.
.	16aa\	.
.	16bb\JJ	.
.	16ccc\LL	.
.	16ddd\	.
.	16eee\	.
.	16ddd\JJ	.
*clefF4	*	*
=54	=54	=54
8E\L	8ccc\L	f
8c\	8ccc\	.
8E\	8gg\	.
8c\J	8gg\J	.
8E\L	8ee\L	.
8c\	8ee\J	.
8E\	16dd\LL	.
.	16cc\	.
8c\J	16b\	.
.	16cc\JJ	.
=55	=55	=55
8F\L	8a/L	.
8c\	8a/	.
8F\	8f/	.
8c\J	8f/J	.
8F\L	8d/L	.
8c\	8d/	.
8F\	8a/	.
8c\J	8a/J	.
=56	=56	=56
8G\L	8g'/L	.
8c\	8g'/J	.
8G\	16a/LL	.
.	16g/	.
8c\J	16f/	.
.	16e/JJ	.
8G\L	2d/	.
8B\	.	.
8G\	.	.
8B\J	.	.
=57	=57	=57
8C\L	8e/	.
8E\J	8r	.
8G\	16r	.
.	16c/LL	.
8r	16d/	.
.	16e/JJ	.
2r	16f/LL	.
.	16g/	.
.	16a/	.
.	16b/JJ	.
.	16cc\LL	.
.	16dd\	.
.	16ee\	.
.	16dd\JJ	.
=58	=58	=58
8AA/L	8cc\	.
8C/J	8r	.
8E\	16r	.
.	16c/LL	.
8r	16d/	.
.	16e/JJ	.
2r	16f/LL	.
.	16g/	.
.	16a/	.
.	16b/JJ	.
.	16cc\LL	.
.	16dd\	.
.	16ee\	.
.	16ff\JJ	.
=59	=59	=59
8EE/L	8gg'\L	.
8C/	8gg'\J	p
8EE/	8r	.
8C/J	8ee'\	.
8EE/L	8r	.
8C/	8cc'\	.
8EE/	8r	.
8C/J	8g#'/	.
=60	=60	=60
8FF/L	8r	.
8C/	16a/LL	.
.	16g#/JJ	.
8FF/	16a\LL	.
.	16b\	.
8C/J	16cc\	.
.	16b\JJ	.
8FF/L	16a/LL	.
.	16gn/	.
8C/	16f/	.
.	16e/JJ	.
8FF/	16d/LL	.
.	16c/	.
8C/J	16B/	.
.	16A/JJ	.
=61	=61	=61
8GG/L	16G/LL	f
.	16c/	.
8C/	16e/	.
.	16g/JJ	.
8GG/	16f/LL	.
.	16e/	.
8C/J	16d/	.
.	16c/JJ	.
8GG/L	2d/	.
8BB/	.	.
8GG/	.	.
8BB/J	.	.
=62	=62	=62
8CC/L	8c/	p
8C/J	8r	.
*	*clefF4	*clefF4
4r	8G\L	.
.	8G\J	.
8CC/L	8E\ 8c\	.
8C/J	8r	.
4r	8G\L	.
.	8G\J	.
=63	=63	=63
8CC/L	8F\ 8d\	.
8C/J	8r	.
4r	8G\L	.
.	8G\J	.
(8CC/L	8D\ 8B\	.
8C/J)	8r	.
4r	8G\L	.
.	8G\J	.
=64	=64	=64
4CC/ 4C/	4E\ 4c\	f
4CC/ 4C/	4E\ 4c\	.
4CC/ 4C/	4E\ 4c\	.
4r	4r	.
==:|!	==:|!	==:|!
*-	*-	*-
!!!ENC: Craig Stuart Sapp
!!!END: 2004/11/26/
